packages/foundations/assets/icons/functional/images/arrows/arrow_down.svg

<svg xmlns="http://www.w3.org/2000/svg" width="32" height="32" fill="none"><path fill="#1A1C1F" fill-rule="evenodd" d="M15.507 6.137a1.1 1.1 0 0 0-.347.327l-.147.222-.026 7.946-.027 7.946-3.147-3.184c-2.128-2.153-3.217-3.218-3.363-3.289-.512-.248-1.118-.022-1.363.508a.9.9 0 0 0-.018.762c.057.139 1.313 1.432 4.2 4.322 2.264 2.268 4.19 4.162 4.278 4.208.207.111.699.111.906 0 .088-.046 2.014-1.94 4.278-4.208 2.887-2.89 4.143-4.183 4.2-4.322.117-.282.102-.514-.05-.818a.995.995 0 0 0-1.316-.459c-.166.08-1.13 1.022-3.378 3.296l-3.147 3.184-.027-7.946-.026-7.946-.147-.222c-.276-.417-.882-.565-1.333-.327"/></svg>

<svg width="32" height="32" viewBox="0 0 32 32" fill="none" xmlns="http://www.w3.org/2000/svg"><path d="M15.507 6.137 C 15.396 6.195,15.240 6.342,15.160 6.464 L 15.013 6.686 14.987 14.632 L 14.960 22.578 11.813 19.394 C 9.685 17.241,8.596 16.176,8.450 16.105 C 7.938 15.857,7.332 16.083,7.087 16.613 C 6.967 16.875,6.961 17.114,7.069 17.375 C 7.126 17.514,8.382 18.807,11.269 21.697 C 13.533 23.965,15.459 25.859,15.547 25.905 C 15.754 26.016,16.246 26.016,16.453 25.905 C 16.541 25.859,18.467 23.965,20.731 21.697 C 23.618 18.807,24.874 17.514,24.931 17.375 C 25.048 17.093,25.033 16.861,24.881 16.557 C 24.635 16.069,24.047 15.864,23.565 16.098 C 23.399 16.178,22.435 17.120,20.187 19.394 L 17.040 22.578 17.013 14.632 L 16.987 6.686 16.840 6.464 C 16.564 6.047,15.958 5.899,15.507 6.137 " fill="#1A1C1F" stroke="none" fill-rule="evenodd"></path></svg>
